public/icons/phone.svg

<svg width="16" height="16" viewBox="0 0 16 16" fill="none" xmlns="http://www.w3.org/2000/svg">
<g clip-path="url(#clip0_344_1250)">
<path d="M15.6666 11.28V13.28C15.6674 13.4657 15.6294 13.6494 15.555 13.8196C15.4806 13.9897 15.3715 14.1424 15.2347 14.2679C15.0979 14.3934 14.9364 14.489 14.7605 14.5485C14.5846 14.608 14.3982 14.63 14.2133 14.6133C12.1619 14.3904 10.1913 13.6894 8.45998 12.5667C6.84919 11.5431 5.48353 10.1774 4.45998 8.56667C3.33329 6.82747 2.63214 4.84733 2.41331 2.78667C2.39665 2.60231 2.41856 2.41651 2.47764 2.24108C2.53673 2.06566 2.63169 1.90446 2.75649 1.76775C2.88128 1.63103 3.03318 1.5218 3.2025 1.44701C3.37183 1.37222 3.55487 1.33351 3.73998 1.33333H5.73998C6.06351 1.33015 6.37717 1.44472 6.62248 1.65569C6.8678 1.86666 7.02803 2.15963 7.07331 2.48C7.15772 3.12004 7.31428 3.74848 7.53998 4.35333C7.62967 4.59195 7.64908 4.85127 7.59591 5.10059C7.54274 5.3499 7.41922 5.57874 7.23998 5.76L6.39331 6.60667C7.34235 8.2757 8.72428 9.65763 10.3933 10.6067L11.24 9.76C11.4212 9.58076 11.6501 9.45723 11.8994 9.40406C12.1487 9.35089 12.408 9.3703 12.6466 9.46C13.2515 9.6857 13.8799 9.84225 14.52 9.92667C14.8438 9.97235 15.1396 10.1355 15.351 10.385C15.5624 10.6345 15.6748 10.953 15.6666 11.28Z" stroke="black" stroke-width="1.5" stroke-linecap="round" stroke-linejoin="round"/>
</g>
<defs>
<clipPath id="clip0_344_1250">
<rect width="16" height="16" fill="white"/>
</clipPath>
</defs>
</svg>

<svg xmlns="http://www.w3.org/2000/svg" width="16" height="16" fill="none"><g clip-path="url(#a)"><path stroke="#000" stroke-linecap="round" stroke-linejoin="round" stroke-width="1.5" d="M15.667 11.28v2a1.333 1.333 0 0 1-1.454 1.333 13.194 13.194 0 0 1-5.753-2.046 13 13 0 0 1-4-4 13.193 13.193 0 0 1-2.047-5.78A1.333 1.333 0 0 1 3.74 1.333h2A1.333 1.333 0 0 1 7.073 2.48a8.56 8.56 0 0 0 .467 1.873 1.333 1.333 0 0 1-.3 1.407l-.847.847a10.667 10.667 0 0 0 4 4l.847-.847a1.333 1.333 0 0 1 1.407-.3 8.56 8.56 0 0 0 1.873.467 1.333 1.333 0 0 1 1.147 1.353Z"/></g><defs><clipPath id="a"><path fill="#fff" d="M0 0h16v16H0z"/></clipPath></defs></svg>
